svg/battery-empty.svg

<svg xmlns="http://www.w3.org/2000/svg" viewBox="0 0 64 32" enable-background="new 0 0 64 32"><style type="text/css">.st0{fill:#333333;}</style><title>battery-empty</title><desc>Created with Sketch.</desc><path class="st0" d="M63 10h-2v-7c0-1.7-1.3-3-3-3h-55c-1.7 0-3 1.3-3 3v26c0 1.7 1.3 3 3 3h55c1.7 0 3-1.3 3-3v-7h2c.6 0 1-.4 1-1v-10c0-.5-.5-1-1-1zm-6 18h-53v-24h53v24z"/></svg>

<?xml version="1.0" encoding="utf-8"?>
<!-- Generator: Adobe Illustrator 21.0.0, SVG Export Plug-In . SVG Version: 6.00 Build 0)  -->
<svg version="1.1" id="Layer_1" xmlns="http://www.w3.org/2000/svg" xmlns:xlink="http://www.w3.org/1999/xlink" x="0px" y="0px"
	 viewBox="0 0 64 32" style="enable-background:new 0 0 64 32;" xml:space="preserve">
<style type="text/css">
	.st0{fill:#333333;}
</style>
<title>battery-empty</title>
<desc>Created with Sketch.</desc>
<path class="st0" d="M63,10h-2V3c0-1.7-1.3-3-3-3H3C1.3,0,0,1.3,0,3v26c0,1.7,1.3,3,3,3h55c1.7,0,3-1.3,3-3v-7h2c0.6,0,1-0.4,1-1V11
	C64,10.5,63.5,10,63,10z M57,28H4V4h53V28z"/>
</svg>
